resources/svg/fridge-fill.svg

<svg fill="currentColor" viewBox="0 0 24 24" xmlns="http://www.w3.org/2000/svg"><path d="M19.998 12V22C19.998 22.5523 19.5503 23 18.998 23H4.99805C4.44576 23 3.99805 22.5523 3.99805 22V12H19.998ZM8.99805 14H6.99805V19H8.99805V14ZM18.998 1C19.5503 1 19.998 1.44772 19.998 2V10H3.99805V2C3.99805 1.44772 4.44576 1 4.99805 1H18.998ZM8.99805 4H6.99805V8H8.99805V4Z"/></svg>

<svg xmlns="http://www.w3.org/2000/svg" viewBox="0 0 24 24" fill="currentColor">
    <g>
        <path fill="none" d="M0 0H24V24H0z"/>
        <path d="M20 12v10c0 .552-.448 1-1 1H5c-.552 0-1-.448-1-1V12h16zM9 14H7v5h2v-5zM19 1c.552 0 1 .448 1 1v8H4V2c0-.552.448-1 1-1h14zM9 4H7v4h2V4z"/>
    </g>
</svg>
